X:71
T:German Waltz. WM.070b
T:New German Waltz,aka. WM.070b
M:3/8
L:1/8
Q:3/8=50
S:Wm.Mittell’s MS, New Romney,Kent,1799
R:.Waltz
O:England
A:Kent
N:Compare with “new German Waltz” No 100
Z:vmp.Chris Partington
K:G
d/c/|BBA|Ggf|ed^c|d/^c/d/e/d/=c/|BBA|Ggf|ed^c|d2:|!
|:d|gdd|bdd|dc’b|bag|gfe|dfg|agf|g2:|!
|:d|dBd|gfe|edd|dBd|dcc|cAc|cBB|B2d|!
dBd|gfe|edd|dBd|dcc|cAF|Ggg|”missing in ms”g2:|

